X:74
T:Down by the Sally Gardens
R:song
C:Words by William Butler Yeats (1865-1939)
Z:id:hn-song-74
M:C|
L:1/8
Q:1/4=80
K:D
DE | F2ED E2(FA) | B4 A2(dA) | B2(AF) E3D | D6
(DE) | F2(ED) E2(FA) | B4 A2(dA) | B2(AF) E3D | D6
A2 | d2(cA) B2ed | c4 A2FA | B2(AF) (AB)(de) | d6
(DE) | F2ED E2(FA) | B4 A2dA | B2(AF) E3D | D6 ||
W:It was down by the Sally Gardens, my love and I did meet.
W:She passed the Sally Gardens with little snow-white feet.
W:She bid me take love easy, as the leaves grow on the tree.
W:But I, being young and foolish, and with her did not agree.
W:
W:In a field down by the river, my love and I did stand,
W:And on my leaning shoulder, she laid her snow-white hand.
W:She bid me take life easy, as the grass grows on the weirs.
W:But I was young and foolish, and now I am full of tears.

